X:1
T:Cannon in D
T:Cannon
%%score { 1 | 2 }
L:1/8
M:4/4
K:D
V:1 treble nm="Piano" snm="Pno."
V:2 bass 
V:1
!pp!!pp! f4!pp! e4 |!pp! d4!pp! c4 |!pp! B4!pp! A4 |!pp! B4!pp! c4 |!p!!p! [df]4!p!!p! [ce]4 | %5
!p!!p! [Bd]4!p!!p! [Ac]4 |!p!!p! [GB]4!p!!p! [FA]4 |!p!!p! [GB]4!p!!p! [Ac]4 | [df]cdF [Ee]AGA | %9
 [Fd]dcB [Ac]f[ca]b | [Bg]feg [Af]edc | [GB]ABd [Ed]2 [Ec]2 | %12
!mp! a!mp!f/!mp!g/!mp! a!mp!f/!mp!g/!mp! a/!mp!A/!mp!B/!mp!c/!mp! d/!mp!e/!mp!f/!mp!g/ | %13
!mp! f!mp!d/!mp!e/!mp! f!mp!F/!mp!G/!mp! A/!mp!B/!mp!A/!mp!G/!mp! A/!mp!F/!mp!G/!mp!A/ | %14
!mp! G!mp!B/!mp!A/!mp! G!mp!F/!mp!E/!mp! F/!mp!E/!mp!D/!mp!E/!mp! F/!mp!G/!mp!A/!mp!B/ | %15
!mp! G!mp!B/!mp!A/!mp! B!mp!c/!mp!d/!mp! c/!mp!B/!mp!A/!mp!B/!mp! c/!mp!d/!mp!e/!mp!f/ | %16
!mp!!mp! [fa]!mp!!mp![df]/!mp!!mp![eg]/!mp!!mp! [fa]!mp!!mp![df]/!mp!!mp![eg]/!mp!!mp! [ca]/!mp!A/!mp!B/!mp!c/!mp! d/!mp!e/!mp!f/!mp!g/ | %17
!mp!!mp! [df]!mp!!mp![Bd]/!mp!!mp![ce]/!mp!!mp! [df]!mp!F/!mp!G/!mp!!mp! [FA]/!mp!B/!mp!A/!mp!G/!mp! A/!mp!d/!mp!c/!mp!d/ | %18
!mp!!mp! [GB]!mp!!mp![Bd]/!mp!!mp![Ac]/!mp!!mp! [GB]!mp!A/!mp!G/!mp!!mp! [FA]/!mp!G/!mp!F/!mp!G/!mp! A/!mp!B/!mp!c/!mp!d/ | %19
!mp!!mp! [GB]!mp!!mp![Bd]/!mp!!mp![Ac]/!mp!!mp! [Bd]!mp!c/!mp!B/!mp! c/!mp!d/!mp!e/!mp!d/!mp! c/!mp!d/!mp!B/!mp!c/ | %20
!mf!!mf! [fa]2!mf! f!mf!a!mf!!mf! [ea]!mf!b!mf!!mf![ca]!mf!g | %21
!mf!!mf! [df]2!mf! d!mf!f!mf!!mf! [cf]!mf!g!mf!!mf![Af]!mf!e | %22
!mf!!mf! [Bd]2!mf! B!mf!d!mf!!mf! [Ad]2!mf! F!mf!d |!mf!!mf! [Gd]!mf!=c!mf!B!mf!c!mf!!mf! [A^c]4 | %24
!f!!f! [fa]2!f! f!f!a!f!!f! [ea]!f!b!f!!f![ca]!f!g | %25
!f!!f! [df]2!f! d!f!f!f!!f! [cf]!f!g!f!!f![Af]!f!e |!f!!f! [Bd]2!f! B!f!d!f!!f! [Ad]2!f! F!f!d | %27
!f!!f! [Gd]!f!=c!f!B!f!c!f!!f!!f!!f! [A^c]2!f! d!f!e | z8 | z8 | z8 | z8 | z8 | z8 | z8 | z8 | z8 | %37
 z8 | z8 | z8 | z8 | z8 | z8 | z8 | z8 | z8 | z8 | z8 | z8 | z8 | z8 | z8 | z8 | z8 | z8 | z8 | %56
 z8 | z8 | z8 | z8 |] %60
V:2
 D,A,DF A,,E,A,C | B,,F,B,D F,,C,F,A, | G,,D,G,B, D,,A,,D,F, | G,,D,G,B, A,,E,A,C | %4
 D,A,DF A,,E,A,C | B,,F,B,D F,,C,F,A, | G,,D,G,B, D,,A,,D,F, | G,,D,G,B, A,,E,A,C | %8
 D,A,DA, A,,E,A,E, | B,,F,B,F, F,,C,F,C, | G,,D,G,D, D,,A,,D,F, | G,,D,G,B, A,,E,A,E, | %12
 D,A,DA, A,,E,A,E, | B,,F,B,F, F,,C,F,C, | G,,D,G,D, D,,A,,D,A,, | G,,D,G,D, A,,E,A,E, | %16
 D,A,DA, A,,E,A,E, | B,,F,B,F, F,,C,F,C, | G,,D,G,D, D,,A,,D,A,, | G,,D,G,D, A,,E,A,E, | %20
 D,A,DA, A,,E,A,E, | B,,F,B,F, F,,C,F,C, | G,,D,G,D, D,,A,,D,A,, | G,,D,G,D, A,,E,A,E, | %24
 D,/A,/D/F/ D/A,/D,/A,/ A,,/E,/A,/C/ A,/E,/A,,/E,/ | %25
 B,,/F,/B,/D/ B,/F,/B,,/F,/ F,,/C,/F,/A,/ F,/C,/F,,/C,/ | %26
 G,,/D,/G,/B,/ G,/D,/G,,/D,/ D,,/A,,/D,/F,/ D,/A,,/D,,/A,,/ | %27
 G,,/D,/G,/B,/ G,/D,/G,,/D,/ A,,/E,/A,/C/ A,/E,/A,,/E,/ | z8 | z8 | z8 | z8 | z8 | z8 | z8 | z8 | %36
 z8 | z8 | z8 | z8 | z8 | z8 | z8 | z8 | z8 | z8 | z8 | z8 | z8 | z8 | z8 | z8 | z8 | z8 | z8 | %55
 z8 | z8 | z8 | z8 | z8 |] %60

